svg_80x80/rust.svg

<svg viewBox="0 0 80 80" xmlns="http://www.w3.org/2000/svg">
<rect width="100%" height="100%" fill="white"/>
<path d="M73.4286 38.9587L70.2919 37.0205L72.9866 34.4704C73.1385 34.3285 73.2518 34.1502 73.3157 33.9524C73.3797 33.7546 73.3922 33.5438 73.3521 33.3398C73.3106 33.1341 73.218 32.9422 73.0828 32.7818C72.9476 32.6213 72.7742 32.4975 72.5786 32.4217L69.1783 31.1381L71.3205 28.1459C71.4446 27.9766 71.5231 27.7782 71.5484 27.5698C71.5737 27.3613 71.545 27.1499 71.465 26.9558C71.383 26.7629 71.2534 26.5939 71.0884 26.4646C70.9234 26.3352 70.7284 26.2498 70.5214 26.2163L66.8917 25.6212L68.4133 22.272C68.5013 22.0808 68.5389 21.8703 68.5226 21.6605C68.5062 21.4507 68.4364 21.2486 68.3198 21.0734C68.1959 20.8974 68.0276 20.7575 67.8319 20.6679C67.6363 20.5783 67.4203 20.5422 67.2062 20.5634L63.5254 20.6994L64.3755 17.1121C64.4252 16.9079 64.4216 16.6944 64.3649 16.492C64.3082 16.2897 64.2004 16.1053 64.0518 15.9567C63.9032 15.8081 63.7188 15.7003 63.5165 15.6436C63.3141 15.5869 63.1006 15.5833 62.8964 15.633L59.3091 16.4831L59.4451 12.8023C59.4519 12.5936 59.4055 12.3866 59.3103 12.2008C59.2152 12.0149 59.0744 11.8563 58.9011 11.7397C58.7257 11.624 58.5242 11.554 58.3148 11.5362C58.1054 11.5184 57.8949 11.5533 57.7025 11.6377L54.3533 13.1678L53.7582 9.52958C53.7234 9.32375 53.6369 9.13013 53.5068 8.96688C53.3768 8.80363 53.2073 8.67609 53.0145 8.59623C52.8216 8.51636 52.6116 8.48679 52.4042 8.51028C52.1968 8.53377 51.9987 8.60955 51.8286 8.73052L48.8364 10.8727L47.5443 7.42993C47.4713 7.23406 47.3494 7.06014 47.1902 6.92473C47.031 6.78932 46.8398 6.69693 46.6347 6.65637C46.4294 6.61639 46.2174 6.62893 46.0182 6.69283C45.8191 6.75674 45.6393 6.86993 45.4956 7.0219L42.9455 9.70809L41.0498 6.57987C40.9391 6.40244 40.785 6.25611 40.6021 6.15467C40.4191 6.05323 40.2134 6 40.0043 6C39.7951 6 39.5894 6.05323 39.4064 6.15467C39.2235 6.25611 39.0694 6.40244 38.9587 6.57987L37.0205 9.71659L34.4704 7.0219C34.3318 6.87536 34.1592 6.76532 33.9679 6.70155C33.7766 6.63778 33.5725 6.62226 33.3738 6.65637C33.1681 6.69787 32.9762 6.79049 32.8158 6.92568C32.6553 7.06087 32.5315 7.23428 32.4557 7.42993L31.1721 10.8727L28.1799 8.72202C28.0098 8.60105 27.8117 8.52527 27.6043 8.50178C27.3969 8.47829 27.1869 8.50786 26.994 8.58773C26.8012 8.66759 26.6317 8.79513 26.5017 8.95838C26.3716 9.12163 26.2851 9.31525 26.2503 9.52107L25.6552 13.1593L22.306 11.6292C22.1136 11.5448 21.9031 11.5099 21.6937 11.5277C21.4843 11.5455 21.2828 11.6155 21.1074 11.7312C20.9329 11.8485 20.7913 12.0085 20.6961 12.196C20.6008 12.3835 20.5552 12.5922 20.5634 12.8023L20.6994 16.4831L17.1121 15.633C16.9079 15.5833 16.6944 15.5869 16.492 15.6436C16.2897 15.7003 16.1053 15.8081 15.9567 15.9567C15.8081 16.1053 15.7003 16.2897 15.6436 16.492C15.5869 16.6944 15.5833 16.9079 15.633 17.1121L16.4831 20.6994L12.8023 20.5634C12.5934 20.555 12.3858 20.6007 12.1996 20.696C12.0135 20.7913 11.8551 20.933 11.7397 21.1074C11.624 21.2828 11.554 21.4843 11.5362 21.6937C11.5184 21.9031 11.5533 22.1136 11.6377 22.306L13.1678 25.6552L9.52958 26.2503C9.32375 26.2851 9.13013 26.3716 8.96688 26.5017C8.80363 26.6317 8.67609 26.8012 8.59623 26.994C8.51636 27.1869 8.48679 27.3969 8.51028 27.6043C8.53377 27.8117 8.60955 28.0098 8.73052 28.1799L10.8812 31.1721L7.42993 32.4557C7.23428 32.5315 7.06087 32.6553 6.92568 32.8158C6.79049 32.9762 6.69787 33.1681 6.65637 33.3738C6.61628 33.5778 6.62881 33.7886 6.69276 33.9864C6.75671 34.1842 6.86998 34.3625 7.0219 34.5044L9.71659 37.0545L6.57987 38.9587C6.40244 39.0694 6.25611 39.2235 6.15467 39.4064C6.05323 39.5894 6 39.7951 6 40.0043C6 40.2134 6.05323 40.4191 6.15467 40.6021C6.25611 40.785 6.40244 40.9391 6.57987 41.0498L9.71659 42.988L7.0219 45.5381C6.87658 45.6776 6.76736 45.8502 6.70368 46.0413C6.64 46.2323 6.62376 46.436 6.65637 46.6347C6.69693 46.8398 6.78932 47.031 6.92473 47.1902C7.06014 47.3494 7.23406 47.4713 7.42993 47.5443L10.8727 48.8364L8.72202 51.8286C8.60105 51.9987 8.52527 52.1968 8.50178 52.4042C8.47829 52.6116 8.50786 52.8216 8.58773 53.0145C8.66759 53.2073 8.79513 53.3768 8.95838 53.5068C9.12163 53.6369 9.31525 53.7234 9.52107 53.7582L13.1593 54.3533L11.6292 57.7025C11.5448 57.8949 11.5099 58.1054 11.5277 58.3148C11.5455 58.5242 11.6155 58.7257 11.7312 58.9011C11.8485 59.0756 12.0085 59.2172 12.196 59.3124C12.3835 59.4077 12.5922 59.4533 12.8023 59.4451L16.4831 59.3091L15.633 62.8964C15.5833 63.1006 15.5869 63.3141 15.6436 63.5165C15.7003 63.7188 15.8081 63.9032 15.9567 64.0518C16.1053 64.2004 16.2897 64.3082 16.492 64.3649C16.6944 64.4216 16.9079 64.4252 17.1121 64.3755L20.6994 63.5254L20.5634 67.2062C20.5552 67.4161 20.6012 67.6246 20.6969 67.8116C20.7926 67.9986 20.9348 68.1578 21.1098 68.2739C21.2849 68.39 21.4868 68.4592 21.6963 68.4746C21.9058 68.4901 22.1158 68.4514 22.306 68.3623L25.6552 66.8407L26.2503 70.4704C26.277 70.685 26.3593 70.8888 26.489 71.0618C26.6187 71.2347 26.7913 71.3708 26.9898 71.4565C27.1839 71.5365 27.3954 71.5652 27.6038 71.5399C27.8122 71.5146 28.0106 71.4361 28.1799 71.312L31.1721 69.1698L32.4557 72.5701C32.5315 72.7657 32.6553 72.9391 32.8158 73.0743C32.9762 73.2095 33.1681 73.3021 33.3738 73.3436C33.5778 73.3837 33.7886 73.3712 33.9864 73.3072C34.1842 73.2433 34.3625 73.13 34.5044 72.9781L37.0545 70.2834L38.9927 73.4201C39.1034 73.5976 39.2575 73.7439 39.4405 73.8453C39.6234 73.9468 39.8291 74 40.0383 74C40.2474 74 40.4531 73.9468 40.6361 73.8453C40.819 73.7439 40.9731 73.5976 41.0838 73.4201L43.022 70.2834L45.5721 72.9781C45.7158 73.1301 45.8956 73.2433 46.0947 73.3072C46.2939 73.3711 46.5059 73.3836 46.7112 73.3436C46.9163 73.3031 47.1075 73.2107 47.2667 73.0753C47.4259 72.9399 47.5478 72.7659 47.6208 72.5701L48.9129 69.1698L51.9051 71.312C52.0744 71.4361 52.2728 71.5146 52.4812 71.5399C52.6897 71.5652 52.9011 71.5365 53.0952 71.4565C53.2881 71.3745 53.4571 71.2449 53.5864 71.0799C53.7158 70.9149 53.8012 70.7199 53.8347 70.5129L54.4298 66.8832L57.779 68.4048C57.9673 68.4843 58.1726 68.5155 58.376 68.4953C58.5795 68.4752 58.7746 68.4044 58.9437 68.2894C59.1128 68.1745 59.2503 68.019 59.3439 67.8372C59.4374 67.6554 59.4839 67.4531 59.4791 67.2487L59.3431 63.5679L62.9304 64.418C63.1346 64.4677 63.3481 64.4641 63.5505 64.4074C63.7528 64.3507 63.9372 64.2429 64.0858 64.0943C64.2344 63.9457 64.3422 63.7613 64.3989 63.559C64.4556 63.3566 64.4592 63.1431 64.4095 62.9389L63.5594 59.3516L67.2402 59.4876C67.4446 59.4924 67.6469 59.4459 67.8287 59.3524C68.0105 59.2588 68.166 59.1213 68.2809 58.9522C68.3959 58.7831 68.4667 58.588 68.4868 58.3845C68.507 58.1811 68.4758 57.9758 68.3963 57.7875L66.8747 54.4383L70.5044 53.8432C70.7223 53.8032 70.9254 53.7057 71.0928 53.5607C71.2602 53.4157 71.3858 53.2286 71.4565 53.0187C71.5373 52.8247 71.5665 52.6132 71.5411 52.4046C71.5158 52.196 71.4369 51.9976 71.312 51.8286L69.1698 48.8364L72.5701 47.5443C72.7659 47.4713 72.9399 47.3494 73.0753 47.1902C73.2107 47.031 73.3031 46.8398 73.3436 46.6347C73.3836 46.4294 73.3711 46.2174 73.3072 46.0182C73.2433 45.8191 73.1301 45.6393 72.9781 45.4956L70.2834 42.9455L73.4201 41.0073C73.5976 40.8966 73.7439 40.7425 73.8453 40.5596C73.9468 40.3766 74 40.1709 74 39.9617C74 39.7526 73.9468 39.5469 73.8453 39.3639C73.7439 39.181 73.5976 39.0269 73.4201 38.9162L73.4286 38.9587ZM39.9022 12.1903H40.0043C40.5427 12.1981 41.0562 12.4185 41.4328 12.8035C41.8094 13.1884 42.0185 13.7066 42.0146 14.2451C42.0107 14.7836 41.794 15.2987 41.4118 15.678C41.0297 16.0574 40.513 16.2703 39.9745 16.2703C39.436 16.2703 38.9193 16.0574 38.5372 15.678C38.155 15.2987 37.9383 14.7836 37.9344 14.2451C37.9305 13.7066 38.1396 13.1884 38.5162 12.8035C38.8928 12.4185 39.4063 12.1981 39.9447 12.1903H39.9022ZM13.9499 32.3537C13.9499 31.8216 14.1613 31.3114 14.5375 30.9351C14.9137 30.5589 15.424 30.3476 15.956 30.3476H16.0155C16.4096 30.3593 16.7914 30.4868 17.1134 30.7142C17.4354 30.9416 17.6833 31.2589 17.826 31.6263C17.9688 31.9938 18.0001 32.3951 17.9161 32.7803C17.8321 33.1654 17.6365 33.5173 17.3537 33.792C17.0709 34.0666 16.7135 34.2518 16.326 34.3245C15.9386 34.3973 15.5383 34.3542 15.1752 34.2008C14.8121 34.0473 14.5022 33.7903 14.2843 33.4618C14.0664 33.1333 13.9501 32.7479 13.9499 32.3537V32.3537ZM16.2026 46.5582C15.3278 43.4944 15.0536 40.2904 15.395 37.1225L19.7218 35.2014C20.1649 35.0041 20.512 34.6395 20.6872 34.1872C20.8624 33.7348 20.8515 33.2315 20.6569 32.7872L19.7643 30.7726H23.2666V46.5582H16.2026ZM25.0262 62.6584C24.5156 62.6251 24.0368 62.3989 23.6869 62.0255C23.337 61.6522 23.1423 61.1596 23.1423 60.648C23.1423 60.1363 23.337 59.6438 23.6869 59.2704C24.0368 58.8971 24.5156 58.6708 25.0262 58.6376H25.0857C25.5964 58.6775 26.0727 58.9105 26.4177 59.2892C26.7628 59.6678 26.9506 60.1637 26.943 60.6759C26.9354 61.1881 26.733 61.6782 26.3769 62.0465C26.0208 62.4148 25.5378 62.6335 25.0262 62.6584V62.6584ZM54.7783 62.7519C54.5033 62.7698 54.2276 62.731 53.9681 62.6381C53.7087 62.5452 53.4711 62.4 53.27 62.2116C53.0689 62.0231 52.9086 61.7954 52.799 61.5426C52.6894 61.2897 52.6329 61.0171 52.6329 60.7415C52.6329 60.4659 52.6894 60.1932 52.799 59.9404C52.9086 59.6875 53.0689 59.4598 53.27 59.2714C53.4711 59.083 53.7087 58.9378 53.9681 58.8449C54.2276 58.7519 54.5033 58.7132 54.7783 58.7311H54.8293C55.3399 58.7702 55.8165 59.0023 56.1621 59.3801C56.5078 59.758 56.6965 60.2533 56.69 60.7654C56.6835 61.2775 56.4823 61.7678 56.1272 62.1368C55.772 62.5058 55.2897 62.7257 54.7783 62.7519V62.7519ZM57.626 57.1075L53.3757 56.1894C52.9001 56.0886 52.4038 56.1805 51.9959 56.445C51.5879 56.7095 51.3015 57.1251 51.1995 57.6005L50.205 62.3013C46.9659 63.7693 43.4482 64.5209 39.892 64.5048C36.3359 64.4887 32.8251 63.7052 29.5995 62.2078L28.5879 57.507C28.5385 57.2702 28.4426 57.0455 28.3057 56.846C28.1688 56.6466 27.9937 56.4763 27.7904 56.345C27.5872 56.2137 27.36 56.1241 27.1218 56.0814C26.8837 56.0386 26.6395 56.0435 26.4033 56.0959L22.2465 56.946C21.4773 56.1437 20.7617 55.2918 20.1043 54.3958H40.3103C40.5313 54.3958 40.6843 54.3958 40.6843 54.1493V47.0598C40.6843 46.8557 40.5313 46.8132 40.3103 46.8132H34.3598V42.2824H40.7523C41.3303 42.2824 43.872 42.4524 44.6796 45.6827C44.9261 46.6772 45.5296 49.933 45.8697 50.9615C46.2522 52.1261 47.7908 54.4468 49.4399 54.4468H59.9042C59.205 55.386 58.4409 56.275 57.6175 57.1075H57.626ZM34.4024 35.6009V30.9426H42.7414C43.175 30.9426 45.7847 31.4441 45.7847 33.3993C45.7847 35.0144 43.7785 35.6009 42.1379 35.6009H34.4024ZM64.656 41.6279H62.1058C61.8593 41.6279 61.7573 41.7894 61.7573 42.0359V43.2005C61.7573 45.9377 60.2102 46.5412 58.8501 46.6857C57.49 46.8302 56.1554 46.1417 55.9514 45.3596C55.1948 41.1093 53.9282 40.1658 51.9221 38.5591C54.4128 36.978 57.0225 34.6489 57.0225 31.5376C57.0225 28.1374 54.7103 26.0548 53.1462 25.0177C51.5498 24.006 49.7205 23.4206 47.8333 23.3176H21.5919C25.218 19.2656 30.0793 16.5227 35.4224 15.514L38.5081 18.7527C38.8405 19.0951 39.294 19.2932 39.7711 19.3044C40.2481 19.3155 40.7104 19.1388 41.0583 18.8122L44.5266 15.514C48.0521 16.175 51.3915 17.5957 54.3127 19.6772C57.2339 21.7588 59.6669 24.4513 61.4428 27.5679L59.0711 32.9147C58.8765 33.3591 58.8656 33.8623 59.0408 34.3147C59.216 34.767 59.563 35.1316 60.0062 35.3289L64.5625 37.3521C64.7159 38.772 64.7472 40.2025 64.656 41.6279V41.6279ZM63.8059 34.4704C63.2954 34.4371 62.8165 34.2109 62.4667 33.8375C62.1168 33.4641 61.9221 32.9716 61.9221 32.46C61.9221 31.9483 62.1168 31.4558 62.4667 31.0824C62.8165 30.709 63.2954 30.4828 63.8059 30.4496H63.8655C64.3762 30.4895 64.8525 30.7225 65.1975 31.1012C65.5425 31.4798 65.7303 31.9757 65.7228 32.4879C65.7152 33.0001 65.5128 33.4902 65.1567 33.8585C64.8006 34.2267 64.3176 34.4455 63.8059 34.4704V34.4704Z" fill="black"/>
</svg>

<svg xmlns="http://www.w3.org/2000/svg" viewBox="0 0 80 80">
  <rect width="100%" height="100%" fill="#fff"/>
  <path d="m73.43 38.96-3.14-1.94 2.7-2.55a1.22 1.22 0 0 0 .1-1.69c-.14-.16-.32-.28-.51-.36l-3.4-1.28 2.14-3a1.22 1.22 0 0 0-.8-1.92l-3.63-.6 1.52-3.35a1.23 1.23 0 0 0-.09-1.2 1.22 1.22 0 0 0-1.11-.5l-3.68.13.85-3.59a1.22 1.22 0 0 0-1.48-1.48l-3.6.85.15-3.68a1.23 1.23 0 0 0-1.75-1.16l-3.35 1.53-.6-3.64a1.23 1.23 0 0 0-1.92-.8l-3 2.14-1.29-3.44a1.22 1.22 0 0 0-2.04-.4L42.95 9.7l-1.9-3.13a1.23 1.23 0 0 0-2.1 0l-1.93 3.14-2.55-2.7a1.22 1.22 0 0 0-1.1-.36 1.25 1.25 0 0 0-.91.77l-1.29 3.44-2.99-2.15a1.23 1.23 0 0 0-1.93.8l-.6 3.64-3.34-1.53a1.26 1.26 0 0 0-1.2.1 1.23 1.23 0 0 0-.55 1.07l.14 3.68-3.59-.85a1.22 1.22 0 0 0-1.48 1.48l.85 3.59-3.68-.14a1.22 1.22 0 0 0-1.26 1.13c-.02.21.01.42.1.62l1.53 3.35-3.64.59a1.23 1.23 0 0 0-.8 1.93l2.15 3-3.45 1.28a1.25 1.25 0 0 0-.74 1.53c.07.2.18.37.33.51l2.7 2.55-3.14 1.9a1.23 1.23 0 0 0 0 2.1l3.14 1.94-2.7 2.55a1.24 1.24 0 0 0-.36 1.1 1.22 1.22 0 0 0 .77.9l3.44 1.3-2.15 2.99a1.23 1.23 0 0 0 .8 1.93l3.64.6-1.53 3.34a1.26 1.26 0 0 0 .1 1.2 1.23 1.23 0 0 0 1.07.55l3.68-.14-.85 3.59a1.22 1.22 0 0 0 1.48 1.48l3.59-.85-.14 3.68a1.22 1.22 0 0 0 1.75 1.15l3.35-1.52.59 3.63a1.24 1.24 0 0 0 .74.99 1.22 1.22 0 0 0 1.19-.15l3-2.14 1.28 3.4a1.25 1.25 0 0 0 1.53.74c.2-.07.37-.18.51-.33l2.55-2.7L39 73.42a1.23 1.23 0 0 0 2.1 0l1.93-3.14 2.55 2.7a1.24 1.24 0 0 0 1.7.1c.16-.14.28-.31.35-.51l1.3-3.4 2.99 2.14a1.22 1.22 0 0 0 1.92-.8l.6-3.63 3.35 1.52a1.22 1.22 0 0 0 1.7-1.15l-.14-3.68 3.59.85a1.22 1.22 0 0 0 1.48-1.48l-.85-3.59 3.68.14a1.22 1.22 0 0 0 1.16-1.7l-1.53-3.35 3.63-.6a1.24 1.24 0 0 0 .96-.82 1.22 1.22 0 0 0-.15-1.2l-2.14-2.98 3.4-1.3a1.23 1.23 0 0 0 .4-2.04l-2.69-2.55L73.42 41a1.23 1.23 0 0 0 0-2.1v.05ZM39.9 12.19h.1a2.04 2.04 0 1 1-.06 0h-.04ZM13.95 32.35a2 2 0 0 1 2-2h.07a2 2 0 1 1-2.07 2Zm2.25 14.2a24.72 24.72 0 0 1-.8-9.43l4.32-1.92a1.84 1.84 0 0 0 .94-2.41l-.9-2.02h3.5v15.79H16.2Zm8.83 16.1a2.02 2.02 0 0 1 0-4.01h.06a2.01 2.01 0 0 1-.06 4.02Zm29.75.1a2.02 2.02 0 1 1 0-4.02h.05a2.01 2.01 0 0 1-.05 4.02Zm2.85-5.64-4.25-.92a1.84 1.84 0 0 0-2.18 1.41l-1 4.7a24.71 24.71 0 0 1-20.6-.1l-1.01-4.7a1.83 1.83 0 0 0-2.19-1.4l-4.15.85c-.77-.8-1.49-1.66-2.15-2.55h20.21c.22 0 .37 0 .37-.25v-7.09c0-.2-.15-.25-.37-.25h-5.95v-4.53h6.4c.57 0 3.11.17 3.92 3.4.25 1 .85 4.25 1.19 5.28.38 1.17 1.92 3.49 3.57 3.49H59.9c-.7.94-1.46 1.82-2.28 2.66ZM34.4 35.6v-4.67h8.34c.43 0 3.04.5 3.04 2.46 0 1.61-2 2.2-3.64 2.2H34.4Zm30.26 6.02H62.1c-.25 0-.35.16-.35.4v1.17c0 2.74-1.55 3.34-2.91 3.49-1.36.14-2.7-.55-2.9-1.33-.76-4.25-2.02-5.2-4.03-6.8 2.5-1.58 5.1-3.91 5.1-7.02 0-3.4-2.31-5.49-3.87-6.52a11.05 11.05 0 0 0-5.32-1.7H21.6a24.71 24.71 0 0 1 13.83-7.8l3.09 3.23a1.82 1.82 0 0 0 2.55.06l3.47-3.3a24.71 24.71 0 0 1 16.91 12.06l-2.37 5.34a1.84 1.84 0 0 0 .94 2.42l4.55 2.02c.16 1.42.19 2.85.1 4.28Zm-.85-7.16a2.01 2.01 0 0 1 0-4.02h.06a2.01 2.01 0 0 1-.06 4.02Z"/>
</svg>
